svgs/solid/vector-polygon.svg

<svg xmlns="http://www.w3.org/2000/svg" viewBox="0 0 448 512"><!--! Font Awesome Pro 6.2.0 by @fontawesome - https://fontawesome.com License - https://fontawesome.com/license (Commercial License) Copyright 2022 Fonticons, Inc. --><path d="M0 64C0 46.3 14.3 32 32 32H96c17.7 0 32 14.3 32 32H320c0-17.7 14.3-32 32-32h64c17.7 0 32 14.3 32 32v64c0 17.7-14.3 32-32 32H384.3l-4.5 7.9-28.4 49.7c.4 2.1 .6 4.2 .6 6.4v64c0 2.2-.2 4.3-.6 6.4l28.4 49.7 4.5 7.9H416c17.7 0 32 14.3 32 32v64c0 17.7-14.3 32-32 32H352c-17.7 0-32-14.3-32-32H128c0 17.7-14.3 32-32 32H32c-17.7 0-32-14.3-32-32V384c0-17.7 14.3-32 32-32V160c-17.7 0-32-14.3-32-32V64zM322.2 372.3L292.3 320H256c-17.7 0-32-14.3-32-32V224c0-17.7 14.3-32 32-32h36.3l29.9-52.3c-1.4-3.6-2.2-7.5-2.2-11.7H128c0 17.7-14.3 32-32 32V352c17.7 0 32 14.3 32 32H320c0-4.1 .8-8.1 2.2-11.7zM48 80v32H80V80H48zm320 0v32h32V80H368zM80 400H48v32H80V400zm288 0v32h32V400H368zM304 240H272v32h32V240z"/></svg>

<svg xmlns="http://www.w3.org/2000/svg" viewBox="0 0 448 512"><!--! Font Awesome Pro 6.1.2 by @fontawesome - https://fontawesome.com License - https://fontawesome.com/license (Commercial License) Copyright 2022 Fonticons, Inc. --><path d="M0 64C0 46.33 14.33 32 32 32H96C113.7 32 128 46.33 128 64H320C320 46.33 334.3 32 352 32H416C433.7 32 448 46.33 448 64V128C448 145.7 433.7 160 416 160H384.3L351.4 217.6C351.8 219.7 352 221.8 352 224V288C352 290.2 351.8 292.3 351.4 294.4L384.3 352H416C433.7 352 448 366.3 448 384V448C448 465.7 433.7 480 416 480H352C334.3 480 320 465.7 320 448H128C128 465.7 113.7 480 96 480H32C14.33 480 0 465.7 0 448V384C0 366.3 14.33 352 32 352V160C14.33 160 0 145.7 0 128V64zM322.2 372.3L292.3 320H256C238.3 320 224 305.7 224 288V224C224 206.3 238.3 192 256 192H292.3L322.2 139.7C320.8 136.1 320 132.1 320 128H128C128 145.7 113.7 160 96 160V352C113.7 352 128 366.3 128 384H320C320 379.9 320.8 375.9 322.2 372.3zM48 112H80V80H48V112zM368 112H400V80H368V112zM80 400H48V432H80V400zM368 432H400V400H368V432zM304 240H272V272H304V240z"/></svg>
